X: 30521
T: Olympus Mons
R: slip jig
M: 9/8
K: Aminor
|A2 a age c2 A|Gee efe dcB|FAc gfe dcB|EBB cBc dcB|
Aaa age c2 A|Gee efe dcB|DFA dcB cBA|^GAB cBc dce|
A2 a age c2 A|Gee efe dcB|FAc gfe dcB|EBB cBc dcB|
Aaa bae c2 A|Gee efe dcB|DFA dcB cBA|^GAB cBA AAE||
|:F2 A BAB cBA|EF/A/B cBc dcB|F2 A BAB cBA|Eff fed cBA|
F2 A BAB cBA|EF/A/B cBc dcB|^GAB cBc dcd|efe dcB ^GEG:|

